X:1
T:Elisæi Historie. Sjette og Sidste Sang
T:Elisæi Historie. Sjette og Sidste Sang
T:Ole Andersen Mærli, Sørum
C:Ole Andersen Mærli, Sørum
L:1/8
M:2/4
K:G
V:1 treble nm="Piano" snm="Pno."
V:1
 (E/G/) |"Em" B2"Am" Ac |"Em" B2 GG |"B7" A2 FF |"Em" E3 (E/G/) | B2"Am" AB |"G" G2 Bc | %7
w: En *|Syg- dom Guds|Mand El- i-|sæ- um faldt|paa. Og *|den Tid han|nu paa sit|
 d2"Am" ec |"B" B3 B |"G" d2"C" ce |"G" d2 BG |"B7" B2 AB |"Em" G3 B |"B" B2"Am" Ac |"Em" B2 GG | %15
w: Y- der- ste|laa, Kom|Is- ra- els|Kon- ge til|han- nem der-|ned At|ta- ge med|han- nem en|
"B7" A2 FF |"Em" E2 z2 |] %17
w: ven- lig Af-|sked.|

